X: 27448
T: Molly Bán
R: reel
M: 4/4
K: Amixolydian
"A"~A2 EA (3Bcd ed|"G"BG ~G2 eGdG|"A"EA (3cde a2 ed|(3cde dB BAAG|
A2 EA (3Bcd ed|"G"BG ~G2 eGdG|"A"EA (3cde a2 ed|(3cde "G"dB "A"BA A2||
"A"a2 ea ~a2 ba|agef "G"~g2 gb|"A"a2 ea ~a2 ba|"Em7"gedB "A"BA ~A2|
a2 ea ~a2 ba|~a2 ef "G"~g3 a|~b2 ba gbaf|"Em7"gedB eBdB||

